icons/plexis/48/jxplorer.svg

<svg viewBox="0 0 48 48" xmlns="http://www.w3.org/2000/svg" xmlns:xlink="http://www.w3.org/1999/xlink">
  <linearGradient id="a" gradientUnits="userSpaceOnUse" x2="0" y1="47" y2="1">
    <stop offset="0" stop-color="#9ddfae"/>
    <stop offset="1" stop-color="#ace4ba"/>
  </linearGradient>
  <path d="m24 1c22.703 0 23 .297 23 23 0 22.703-.297 23-23 23-22.703 0-23-.297-23-23 0-22.703.297-23 23-23z" fill="url(#a)"/>
  <path d="m25 12a3 3 0 0 0-3 3 3 3 0 0 0  .424 1.529l-1.384 1.661a3 3 0 0 0-1.04-.19 3 3 0 0 0-3 3 3 3 0 0 0  .424 1.529l-1.384 1.661a3 3 0 0 0-1.04-.19 3 3 0 0 0-3 3 3 3 0 0 0  3 3 3 3 0 0 0  3-3 3 3 0 0 0-.424-1.529l1.383-1.658a3 3 0 0 0 1.041.187 3 3 0 0 0  1.04-.189l1.385 1.66a3 3 0 0 0-.425 1.529 3 3 0 0 0  .424 1.529l-1.384 1.661a3 3 0 0 0-1.04-.19 3 3 0 0 0-3 3 3 3 0 0 0  3 3 3 3 0 0 0  3-3 3 3 0 0 0-.424-1.529l1.383-1.658a3 3 0 0 0 1.041.187 3 3 0 0 0  1.04-.189l1.385 1.66a3 3 0 0 0-.425 1.529 3 3 0 0 0  3 3 3 3 0 0 0  3-3 3 3 0 0 0-3-3 3 3 0 0 0-1.041.189l-1.383-1.66a3 3 0 0 0  .424-1.529 3 3 0 0 0-3-3 3 3 0 0 0-1.041.19l-1.383-1.661a3 3 0 0 0  .424-1.529 3 3 0 0 0-.424-1.529l1.383-1.658a3 3 0 0 0 1.041.187 3 3 0 0 0  1.04-.189l1.385 1.66a3 3 0 0 0-.425 1.529 3 3 0 0 0  3 3 3 3 0 0 0  1.039-.189l1.385 1.66a3 3 0 0 0-.424 1.529 3 3 0 0 0  3 3 3 3 0 0 0  3-3 3 3 0 0 0-3-3 3 3 0 0 0-1.039.189l-1.385-1.66a3 3 0 0 0  .424-1.529 3 3 0 0 0-3-3 3 3 0 0 0-1.039.19l-1.385-1.661a3 3 0 0 0  .424-1.529 3 3 0 0 0-3-3" opacity=".1"/>
  <path d="m24 11a3 3 0 0 0-3 3 3 3 0 0 0  3 3 3 3 0 0 0  3-3 3 3 0 0 0-3-3zm-5 6a3 3 0 0 0-3 3 3 3 0 0 0  3 3 3 3 0 0 0  3-3 3 3 0 0 0-3-3zm10 0a3 3 0 0 0-3 3 3 3 0 0 0  3 3 3 3 0 0 0  3-3 3 3 0 0 0-3-3zm-15 6a3 3 0 0 0-3 3 3 3 0 0 0  3 3 3 3 0 0 0  3-3 3 3 0 0 0-3-3zm10 0a3 3 0 0 0-3 3 3 3 0 0 0  3 3 3 3 0 0 0  3-3 3 3 0 0 0-3-3zm10 0a3 3 0 0 0-3 3 3 3 0 0 0  3 3 3 3 0 0 0  3-3 3 3 0 0 0-3-3zm-15 6a3 3 0 0 0-3 3 3 3 0 0 0  3 3 3 3 0 0 0  3-3 3 3 0 0 0-3-3zm10 0a3 3 0 0 0-3 3 3 3 0 0 0  3 3 3 3 0 0 0  3-3 3 3 0 0 0-3-3z" fill="#358abf"/>
  <path d="m24 12.438l-10.768 12.922 1.535 1.281 4.232-5.078 3.699 4.438-4.467 5.359 1.535 1.281 4.232-5.078 4.232 5.078 1.535-1.281-9.467-11.359 3.699-4.438 9.531 11.438.938-2-10.469-12.563" fill="#358abf" fill-rule="evenodd"/>
</svg>

<svg xmlns="http://www.w3.org/2000/svg" viewBox="0 0 48 48">
 <defs>
  <linearGradient id="linearGradient4223" y1="47" x2="0" y2="1" gradientUnits="userSpaceOnUse">
   <stop style="stop-color:#9ddfae;stop-opacity:1"/>
   <stop offset="1" style="stop-color:#ace4ba;stop-opacity:1"/>
  </linearGradient>
 </defs>
 <g>
  
  
  
 </g>
 <g>
  <path d="m 24 1 c 22.703 0 23 0.297 23 23 c 0 22.703 -0.297 23 -23 23 -22.703 0 -23 -0.297 -23 -23 0 -22.703 0.297 -23 23 -23 z" style="fill:url(#linearGradient4223);fill-opacity:1"/>
 </g>
 <g>
  
 </g>
 <path d="m 25 12 a 3 3 0 0 0 -3 3 3 3 0 0 0 0.424 1.529 L 21.04 18.19 A 3 3 0 0 0 20 18 a 3 3 0 0 0 -3 3 3 3 0 0 0 0.424 1.529 L 16.04 24.19 A 3 3 0 0 0 15 24 a 3 3 0 0 0 -3 3 3 3 0 0 0 3 3 3 3 0 0 0 3 -3 3 3 0 0 0 -0.424 -1.529 L 18.959 23.813 A 3 3 0 0 0 20 24 3 3 0 0 0 21.04 23.811 l 1.385 1.66 A 3 3 0 0 0 22 27 3 3 0 0 0 22.424 28.529 L 21.04 30.19 A 3 3 0 0 0 20 30 a 3 3 0 0 0 -3 3 3 3 0 0 0 3 3 3 3 0 0 0 3 -3 3 3 0 0 0 -0.424 -1.529 L 23.959 29.813 A 3 3 0 0 0 25 30 3 3 0 0 0 26.04 29.811 l 1.385 1.66 A 3 3 0 0 0 27 33 a 3 3 0 0 0 3 3 3 3 0 0 0 3 -3 3 3 0 0 0 -3 -3 3 3 0 0 0 -1.041 0.189 L 27.576 28.529 A 3 3 0 0 0 28 27 3 3 0 0 0 25 24 3 3 0 0 0 23.959 24.19 L 22.576 22.529 A 3 3 0 0 0 23 21 3 3 0 0 0 22.576 19.471 L 23.959 17.813 A 3 3 0 0 0 25 18 3 3 0 0 0 26.04 17.811 l 1.385 1.66 A 3 3 0 0 0 27 21 a 3 3 0 0 0 3 3 3 3 0 0 0 1.039 -0.189 l 1.385 1.66 A 3 3 0 0 0 32 27 a 3 3 0 0 0 3 3 3 3 0 0 0 3 -3 3 3 0 0 0 -3 -3 3 3 0 0 0 -1.039 0.189 L 32.576 22.529 A 3 3 0 0 0 33 21 3 3 0 0 0 30 18 3 3 0 0 0 28.961 18.19 L 27.576 16.529 A 3 3 0 0 0 28 15 3 3 0 0 0 25 12" style="fill:#000;opacity:0.1;fill-opacity:1;stroke:none"/>
 <path d="m 24 11 a 3 3 0 0 0 -3 3 3 3 0 0 0 3 3 3 3 0 0 0 3 -3 3 3 0 0 0 -3 -3 z m -5 6 a 3 3 0 0 0 -3 3 3 3 0 0 0 3 3 3 3 0 0 0 3 -3 3 3 0 0 0 -3 -3 z m 10 0 a 3 3 0 0 0 -3 3 3 3 0 0 0 3 3 3 3 0 0 0 3 -3 3 3 0 0 0 -3 -3 z m -15 6 a 3 3 0 0 0 -3 3 3 3 0 0 0 3 3 3 3 0 0 0 3 -3 3 3 0 0 0 -3 -3 z m 10 0 a 3 3 0 0 0 -3 3 3 3 0 0 0 3 3 3 3 0 0 0 3 -3 3 3 0 0 0 -3 -3 z m 10 0 a 3 3 0 0 0 -3 3 3 3 0 0 0 3 3 3 3 0 0 0 3 -3 3 3 0 0 0 -3 -3 z m -15 6 a 3 3 0 0 0 -3 3 3 3 0 0 0 3 3 3 3 0 0 0 3 -3 3 3 0 0 0 -3 -3 z m 10 0 a 3 3 0 0 0 -3 3 3 3 0 0 0 3 3 3 3 0 0 0 3 -3 3 3 0 0 0 -3 -3 z" style="fill:#358abf;opacity:1;fill-opacity:1;stroke:none"/>
 <path d="m 24 12.438 -10.768 12.922 1.535 1.281 4.232 -5.078 3.699 4.438 -4.467 5.359 1.535 1.281 4.232 -5.078 4.232 5.078 1.535 -1.281 -9.467 -11.359 3.699 -4.438 9.531 11.438 0.938 -2 -10.469 -12.563" mix-blend-mode="normal" isolation="auto" white-space="normal" solid-opacity="1" solid-color="#000000" style="visibility:visible;shape-rendering:auto;color-interpolation-filters:linearRGB;fill:#358abf;opacity:1;image-rendering:auto;fill-opacity:1;stroke:none;display:inline;color:#000;fill-rule:evenodd;color-rendering:auto;color-interpolation:sRGB"/>
</svg>
